dist/img/facts/fact-2.svg

<svg width="42" height="43" viewBox="0 0 42 43" fill="none" xmlns="http://www.w3.org/2000/svg">
<g clip-path="url(#clip0)">
<path d="M37.2092 2.00001C34.9305 1.99581 33.0798 3.87595 33.0757 6.19946C33.0737 7.29456 33.4907 8.34735 34.238 9.13395L26.6845 24.5343C26.519 24.5063 26.3519 24.489 26.1843 24.4824C25.6505 24.4834 25.1221 24.5904 24.6284 24.7971L18.7645 18.0735C19.1068 17.4564 19.289 16.7605 19.2937 16.0515C19.2937 13.7234 17.4427 11.8361 15.1594 11.8361C12.876 11.8361 11.025 13.7234 11.025 16.0515C11.029 17.0578 11.3893 18.0287 12.0393 18.7859L4.87305 31.5839C4.62951 31.5361 4.38234 31.5107 4.13436 31.508C1.85101 31.508 0 33.3953 0 35.7234C0 38.0515 1.85101 39.9388 4.13436 39.9388C6.4177 39.9388 8.26871 38.0515 8.26871 35.7234C8.26468 34.7171 7.90445 33.7462 7.25442 32.989L14.4207 20.191C15.19 20.3459 15.9871 20.2627 16.7097 19.9521L22.5737 26.6757C22.2333 27.2933 22.053 27.9892 22.05 28.6977C22.0431 31.0258 23.8885 32.9188 26.1718 32.9258C28.4552 32.9328 30.3118 31.0513 30.3186 28.7231C30.3219 27.6248 29.9046 26.5686 29.1555 25.7793L36.709 10.3789C36.8745 10.4069 37.0416 10.4243 37.2092 10.4309C39.4925 10.4309 41.3436 8.54354 41.3436 6.21543C41.3436 3.88731 39.4925 2.00001 37.2092 2.00001ZM4.13436 37.1286C3.37321 37.1286 2.75621 36.4995 2.75621 35.7234C2.75621 34.9473 3.37321 34.3182 4.13436 34.3182C4.8955 34.3182 5.5125 34.9473 5.5125 35.7234C5.5125 36.4995 4.8955 37.1286 4.13436 37.1286ZM15.1593 17.4565C14.3981 17.4565 13.7811 16.8274 13.7811 16.0514C13.7811 15.2753 14.3981 14.6462 15.1593 14.6462C15.9204 14.6462 16.5374 15.2753 16.5374 16.0514C16.5374 16.8274 15.9204 17.4565 15.1593 17.4565ZM26.1843 30.1028C25.4231 30.1028 24.8061 29.4737 24.8061 28.6976C24.8061 27.9216 25.4231 27.2925 26.1843 27.2925C26.9454 27.2925 27.5624 27.9216 27.5624 28.6976C27.5623 29.4737 26.9453 30.1028 26.1843 30.1028ZM37.2092 7.6206C36.4481 7.6206 35.8311 6.9915 35.8311 6.21543C35.8311 5.43936 36.4481 4.81026 37.2092 4.81026C37.9703 4.81026 38.5874 5.43936 38.5874 6.21543C38.5874 6.9915 37.9703 7.6206 37.2092 7.6206Z" fill="#AB66D9"/>
</g>
<defs>
<clipPath id="clip0">
<rect width="41.3436" height="42.1542" fill="white"/>
</clipPath>
</defs>
</svg>

<svg width="42" height="43" fill="none" xmlns="http://www.w3.org/2000/svg"><g clip-path="url(#clip0)"><path d="M37.21 2c-2.28-.004-4.13 1.876-4.134 4.2a4.25 4.25 0 001.162 2.934l-7.553 15.4a3.924 3.924 0 00-.5-.052 4.047 4.047 0 00-1.557.315l-5.863-6.724a4.228 4.228 0 00.529-2.021c0-2.329-1.851-4.216-4.135-4.216-2.283 0-4.134 1.887-4.134 4.216a4.225 4.225 0 001.014 2.734L4.873 31.584a4.064 4.064 0 00-.739-.076C1.851 31.508 0 33.395 0 35.723s1.851 4.216 4.134 4.216c2.284 0 4.135-1.888 4.135-4.216a4.225 4.225 0 00-1.015-2.734l7.167-12.798a3.858 3.858 0 002.289-.239l5.864 6.724a4.227 4.227 0 00-.524 2.022c-.007 2.328 1.838 4.22 4.122 4.228 2.283.007 4.14-1.875 4.147-4.203a4.259 4.259 0 00-1.163-2.944l7.553-15.4c.165.028.333.045.5.052 2.283 0 4.135-1.887 4.135-4.216C41.344 3.887 39.492 2 37.209 2zM4.133 37.129c-.76 0-1.378-.63-1.378-1.406 0-.776.617-1.405 1.378-1.405.761 0 1.378.63 1.378 1.405 0 .776-.616 1.406-1.378 1.406zM15.16 17.457c-.76 0-1.378-.63-1.378-1.406 0-.776.617-1.405 1.378-1.405.761 0 1.378.63 1.378 1.405 0 .776-.617 1.405-1.378 1.405zm11.025 12.646c-.76 0-1.378-.63-1.378-1.405 0-.776.617-1.405 1.378-1.405.761 0 1.378.629 1.378 1.405s-.617 1.405-1.378 1.405zM37.21 7.62c-.76 0-1.378-.63-1.378-1.406 0-.776.617-1.405 1.378-1.405.761 0 1.378.63 1.378 1.405 0 .777-.617 1.406-1.378 1.406z" fill="#AB66D9"/></g><defs><clipPath id="clip0"><path fill="#fff" d="M0 0h41.344v42.154H0z"/></clipPath></defs></svg>
